X:70
T:Polska efter Ola Lans
R:sl-polska
A:Sk{\aa}ne
Z:id:hn-sp-70
M:3/4
L:1/16
K:Ador
e2a2 a2g2 gagf | edef gagf e2[e2A2]| \
e2a2 a2g2 gagf | edef gagf e4 :| \
|: B2-B2 e2-e2 c2G2 | cde=f gagf e2-e2 | \
B2-B2 e2-e2 c2G2 | cde=f gagf e2-e2 | \
c2a2 g2P^f2 e2d2 | dcBc d4 c4 :|

